src/resources/assets/volume-1.svg

<svg xmlns="http://www.w3.org/2000/svg" width="16" height="16"><path d="M 9.800781 2.292969 C 9.929688 2.445312 10 2.636719 10 2.832031 L 10 13.167969 C 10 13.628906 9.625 14 9.167969 14 C 8.96875 14 8.777344 13.929688 8.628906 13.804688 L 5.316406 11 L 2.832031 11 C 2.003906 11 1.332031 10.328125 1.332031 9.5 L 1.332031 6.5 C 1.332031 5.671875 2.003906 5 2.832031 5 L 5.316406 5 L 8.628906 2.195312 C 8.980469 1.898438 9.503906 1.941406 9.800781 2.292969 Z M 9 3.191406 L 5.683594 6 L 2.832031 6 C 2.558594 6 2.332031 6.222656 2.332031 6.5 L 2.332031 9.5 C 2.332031 9.773438 2.558594 10 2.832031 10 L 5.683594 10 L 9 12.808594 Z M 9 3.191406" fill="#ddd"/></svg>

<svg xmlns="http://www.w3.org/2000/svg" width="16" height="16"><path d="M9.8 2.293c.13.152.2.344.2.539v10.336a.833.833 0 01-1.371.637L5.316 11H2.832a1.5 1.5 0 01-1.5-1.5v-3a1.5 1.5 0 011.5-1.5h2.484L8.63 2.195a.83.83 0 011.172.098zm-.8.898L5.684 6H2.832c-.273 0-.5.223-.5.5v3c0 .273.227.5.5.5h2.852L9 12.809zm0 0" fill="#ddd"/></svg>
